X: 5946
T: Camino
R: polka
M: 2/4
K: Gmajor
d|gb/g/ fd|ef ga|gb/g/ fd|e2ef|gb/g/ fd|ef ga|gB cA|G2Gd|
gb/g/ fd|ef ga|ba/b/ ag|a2ab|gb/g/ fd|ef ga|gB cA|G2GA|
BA/B/ AG|AB ce|d^c/d/ ef|g2gd|gb/g/ fd|ef ga|gB cA|G2GA|
BA/B/ AG|AB ce|d^c/d/ ef|g2gd|gb/g/ fd|ef ga|gB cA|G2G|

